X:153
T:score234
L:1/8
Q:1/4=96
M:12/8
I:linebreak $
K:Bb
!p! (f6 =e3 g3) | (f3- f2 d f3) z3 |$ (d6 e3 c3) | (B3- B2 d/c/ B3) z3 | (d6 =e3 A3) |$ %5
 (f6 =e3 d3) | (c6 d3 =e3) | f3 z3 z6 |] %8
